X:240
T: Vom geistlichen Jaeger
N: A0598
O: Europa, Mitteleuropa, Deutschland
N: Speiersches Gsgb 1617 fol. 1
R: Romanze, Ballade, Lied, religioeses Lied
M: 4/2
L: 1/4
K: F
F2 | F2G2A2B2 | c4c4z2
c2 | (3B2A2B2(3c2B4 | A4z2
A2 | A2c2B2A2 | G2F2E4 |
F3F | A2B2A2G2 | F6

@@@ Tune index: 553
